X:1
T:Title
%%score { ( 1 3 ) | ( 2 4 ) }
L:1/8
M:3/4
K:Ab
V:1 treble nm="Grand Piano"
V:3 treble 
V:2 bass 
V:4 bass 
V:1
 z2 z2[Q:1/4=100] [CE][CE] | [CE]2 [_C=D]2 [CF]2 | [CE]2 [Ec]2 [=EB]2 | [FA]2 [DF]2 [FA]2 | %4
 [CE]4 [CE][CE] | G2 F2 E2 | G2 F2 E2 | A6- | A4 z2 | [CE]2 [_C=D]2 [CF]2 | [CE]2 [Ec]2 [=EB]2 | %11
 [FA]2 [DF]2 [FA]2 | [CE]4 [CE][CE] | G2 F2 E2 | G2 F2 E2 | [CA]6- | [CA]4 z2 | [Ac]6 | [Bd]6 | %19
 [ce]2 [ce]2 [ce]2 | [Ac]4 c2 | =d2 c2 B2 | [A=d]2 [Ac]2 [AB]2 | e6- |[M:4/4] e6 z2 | %25
[M:3/4] c2 c2 c2 | [_Ge]4 [Ge][Ge] | [Fd]2 [Fd]2 [Fd]2 |[M:4/4] [FA]6 FF | %29
[M:3/4] E2 E2 E2[Q:1/4=98][Q:1/4=97][Q:1/4=95][Q:1/4=94][Q:1/4=92][Q:1/4=91][Q:1/4=89][Q:1/4=88][Q:1/4=86][Q:1/4=84][Q:1/4=83][Q:1/4=81][Q:1/4=80][Q:1/4=78][Q:1/4=77] | %30
 E2 E2 E2 | [CE]6- |[M:2/4] [CE]2 z2 |] %33
V:2
 z2 z2 [A,,A,][A,,A,] | [A,,A,]2 [A,,A,]2 [A,,A,]2 | [A,,A,]2 [A,,A,]2 [C,G,]2 | %3
 [D,F,]2 [D,A,]2 [D,A,]2 | [A,,A,]4 [A,,A,][A,,A,] | [E,B,D]2 [E,A,D]2 [E,G,D]2 | %6
 [E,B,D]2 [E,A,D]2 [E,G,D]2 | E,4 F,2 | E,4 [A,,A,][A,,A,] | [A,,A,]2 [A,,A,]2 [A,,A,]2 | %10
 [A,,A,]2 [A,,A,]2 [C,G,]2 | [D,F,]2 [D,A,]2 [D,A,]2 | [A,,A,]4 [A,,A,][A,,A,] | %13
 [E,B,D]2 [E,A,D]2 [E,G,D]2 | [E,B,D]2 [E,A,D]2 [E,G,D]2 | [A,,E,]6- | [A,,E,]4 z2 | A,4 z2 | %18
 G,4 z2 | [A,,A,]2 [A,,A,]2 [A,,E,]2 | [A,,A,]4[K:treble] [A,EA]2 | [B,A]2 [B,A]2 [B,A]2 | %22
 [B,,B,]2 [B,,B,]2 [B,,B,]2 | B,2 B,2 C2 |[M:4/4] D6 [E,E][E,E] | %25
[M:3/4][K:treble] [A,EA]2 [A,EA]2 [A,EA]2 | [C,A,]4 [C,A,][C,A,] | [D,A,]2 [D,A,]2 [D,A,]2 | %28
[M:4/4] [=D,_C]6 [D,A,C][D,A,C] |[M:3/4] [E,A,C]2 [E,A,C]2 [E,A,C]2 | [E,G,B,]2 [E,A,C]2 [E,B,D]2 | %31
 [A,,A,]6- |[M:2/4] [A,,A,]2 z2 |] %33
V:3
 x6 | x6 | x6 | x6 | x6 | x6 | x6 | C4 D2 | C4 [CE][CE] | x6 | x6 | x6 | x6 | x6 | x6 | x6 | x6 | %17
 z2 z2 E,2 | z2 z2 E,2 | x6 | x6 | x6 | x6 | G2 G2 A2 |[M:4/4] B6 [ce][Bd] |[M:3/4] x6 | x6 | x6 | %28
[M:4/4] x8 |[M:3/4] x6 | x6 | x6 |[M:2/4] x4 |] %33
V:4
 x6 | x6 | x6 | x6 | x6 | x6 | x6 | A,,6- | A,,4 z2 | x6 | x6 | x6 | x6 | x6 | x6 | x6 | x6 | %17
 A,,6 | A,,6 | x6 | x4[K:treble] x2 | x6 | x6 | E,6- |[M:4/4] E,6 z2 |[M:3/4][K:treble] x6 | x6 | %27
 x6 |[M:4/4] x8 |[M:3/4] x6 | x6 | x6 |[M:2/4] x4 |] %33

